icon-themes/sifr_svg/cmd/sc_linearrows.svg

<svg viewBox="0 0 16 16" xmlns="http://www.w3.org/2000/svg"><path d="m5 4c-.30945 0-.55232.09029-.75.28125l-4.25 3.71875c1.41667 1.073 2.83333 2.64575 4.25 3.71875.19768.19095.44055.28125.75.28125h.5859375.4140625v-1c0-.25689-.12983-.52846-.3125-.71875l-1.5097656-1.28125h7.6445316l-1.509766 1.28125c-.18267.19029-.3125.46186-.3125.71875v1h.414062.585938c.30945 0 .55232-.0903.75-.28125 1.41667-1.073 2.83333-2.64575 4.25-3.71875l-4.25-3.71875c-.19768-.19095-.44055-.28125-.75-.28125h-.585938-.414062v1c0 .25689.12983.52846.3125.71875l1.509766 1.28125h-7.6445316l1.5097656-1.28125c.18267-.19029.3125-.46186.3125-.71875v-1h-.4140625z" fill="#555753"/></svg>

<svg xmlns="http://www.w3.org/2000/svg" viewBox="0 0 16 16">
 <path
     style="fill:#555753"
     d="M 5 4 C 4.69055 4 4.44768 4.09029 4.25 4.28125 L 0 8 C 1.41667 9.073 2.83333 10.64575 4.25 11.71875 C 4.44768 11.9097 4.69055 12 5 12 L 5.5859375 12 L 6 12 L 6 11 C 6 10.74311 5.87017 10.47154 5.6875 10.28125 L 4.1777344 9 L 11.822266 9 L 10.3125 10.28125 C 10.12983 10.47154 10 10.74311 10 11 L 10 12 L 10.414062 12 L 11 12 C 11.30945 12 11.55232 11.9097 11.75 11.71875 C 13.16667 10.64575 14.58333 9.073 16 8 L 11.75 4.28125 C 11.55232 4.0903 11.30945 4 11 4 L 10.414062 4 L 10 4 L 10 5 C 10 5.25689 10.12983 5.52846 10.3125 5.71875 L 11.822266 7 L 4.1777344 7 L 5.6875 5.71875 C 5.87017 5.52846 6 5.25689 6 5 L 6 4 L 5.5859375 4 L 5 4 z "
     />
 </svg>
